src/assets/images/icons/icon-whatsapp.svg

<svg width="40" height="41" viewBox="0 0 40 41" fill="none" xmlns="http://www.w3.org/2000/svg">
<path d="M40 9.6C39.9762 8.73721 39.9094 7.87615 39.8 7.02C39.6504 6.27031 39.4016 5.54391 39.06 4.86C38.7012 4.11898 38.2213 3.44303 37.64 2.86C37.0524 2.28415 36.3774 1.80489 35.64 1.44C34.9551 1.10533 34.2287 0.863208 33.48 0.72C32.6323 0.591871 31.7772 0.518386 30.92 0.5H9.1C8.23721 0.523802 7.37615 0.590551 6.52 0.7C5.77031 0.849568 5.04391 1.09843 4.36 1.44C3.61898 1.79878 2.94303 2.27871 2.36 2.86C1.78415 3.44761 1.30489 4.12262 0.94 4.86C0.60533 5.54491 0.363208 6.27127 0.22 7.02C0.091871 7.86774 0.0183862 8.72283 0 9.58V31.4C0.0238016 32.2628 0.0905507 33.1239 0.2 33.98C0.349568 34.7297 0.598427 35.4561 0.94 36.14C1.29878 36.881 1.77871 37.557 2.36 38.14C2.94761 38.7158 3.62262 39.1951 4.36 39.56C5.04491 39.8947 5.77127 40.1368 6.52 40.28C7.36774 40.4081 8.22283 40.4816 9.08 40.5H30.9C31.7628 40.4762 32.6239 40.4094 33.48 40.3C34.2297 40.1504 34.9561 39.9016 35.64 39.56C36.381 39.2012 37.057 38.7213 37.64 38.14C38.2158 37.5524 38.6951 36.8774 39.06 36.14C39.3947 35.4551 39.6368 34.7287 39.78 33.98C39.9081 33.1323 39.9816 32.2772 40 31.42V9.6ZM20.46 34.5C18.0579 34.4899 15.6976 33.8706 13.6 32.7L6 34.7L8 27.26C6.70933 25.0933 6.01901 22.6219 6 20.1C6.00796 17.2659 6.85441 14.4974 8.43272 12.1434C10.011 9.7894 12.2506 7.95506 14.8695 6.87143C17.4883 5.7878 20.3692 5.50334 23.1494 6.05388C25.9295 6.60441 28.4846 7.96532 30.4929 9.96521C32.5011 11.9651 33.8726 14.5145 34.4347 17.2924C34.9968 20.0702 34.7243 22.9523 33.6516 25.5756C32.5788 28.1989 30.7538 30.4461 28.4064 32.0342C26.059 33.6223 23.2941 34.4803 20.46 34.5ZM20.46 8.24C18.3396 8.26426 16.2635 8.84997 14.4431 9.93748C12.6227 11.025 11.123 12.5755 10.0966 14.431C9.07023 16.2866 8.5539 18.381 8.60017 20.5011C8.64644 22.6211 9.25366 24.691 10.36 26.5L10.64 26.96L9.44 31.34L14 30.1L14.44 30.36C16.2591 31.4315 18.3288 32.0041 20.44 32.02C23.6226 32.02 26.6748 30.7557 28.9253 28.5053C31.1757 26.2548 32.44 23.2026 32.44 20.02C32.44 16.8374 31.1757 13.7852 28.9253 11.5347C26.6748 9.28428 23.6226 8.02 20.44 8.02L20.46 8.24ZM27.46 25.28C27.198 25.7169 26.8473 26.094 26.4304 26.3869C26.0136 26.6797 25.5399 26.8818 25.04 26.98C24.2932 27.119 23.5237 27.0709 22.8 26.84C22.1189 26.6265 21.451 26.3728 20.8 26.08C18.3275 24.8393 16.2189 22.9788 14.68 20.68C13.8458 19.6138 13.3386 18.3286 13.22 16.98C13.2081 16.4196 13.3141 15.8629 13.5312 15.3461C13.7482 14.8293 14.0715 14.3638 14.48 13.98C14.6003 13.8436 14.7479 13.7339 14.9133 13.6581C15.0787 13.5823 15.2581 13.5421 15.44 13.54H16C16.22 13.54 16.52 13.54 16.8 14.16C17.08 14.78 17.82 16.64 17.92 16.82C17.9691 16.9159 17.9948 17.0222 17.9948 17.13C17.9948 17.2378 17.9691 17.3441 17.92 17.44C17.8328 17.6579 17.7112 17.8605 17.56 18.04C17.38 18.26 17.18 18.52 17.02 18.68C16.86 18.84 16.66 19.04 16.86 19.4C17.4051 20.3177 18.0786 21.1529 18.86 21.88C19.7119 22.6327 20.6858 23.2347 21.74 23.66C22.1 23.84 22.32 23.82 22.52 23.66C22.72 23.5 23.42 22.62 23.66 22.26C23.9 21.9 24.14 21.96 24.46 22.08C24.78 22.2 26.56 23.06 26.92 23.24C27.28 23.42 27.5 23.5 27.6 23.66C27.6867 24.1834 27.6386 24.7204 27.46 25.22V25.28Z" fill="white"/>
</svg>

<svg xmlns="http://www.w3.org/2000/svg" width="40" height="41" fill="none"><path fill="#fff" d="M40 9.6a26.014 26.014 0 0 0-.2-2.58 8.6 8.6 0 0 0-.74-2.16 7.4 7.4 0 0 0-1.42-2 7.8 7.8 0 0 0-2-1.42 8.6 8.6 0 0 0-2.16-.72A19.999 19.999 0 0 0 30.92.5H9.1a26 26 0 0 0-2.58.2 8.6 8.6 0 0 0-2.16.74 7.4 7.4 0 0 0-2 1.42 7.8 7.8 0 0 0-1.42 2 8.6 8.6 0 0 0-.72 2.16A20 20 0 0 0 0 9.58V31.4c.024.863.09 1.724.2 2.58a8.6 8.6 0 0 0 .74 2.16 7.4 7.4 0 0 0 1.42 2 7.802 7.802 0 0 0 2 1.42 8.598 8.598 0 0 0 2.16.72c.848.128 1.703.202 2.56.22H30.9c.863-.024 1.724-.09 2.58-.2a8.6 8.6 0 0 0 2.16-.74 7.4 7.4 0 0 0 2-1.42 7.801 7.801 0 0 0 1.42-2 8.599 8.599 0 0 0 .72-2.16c.128-.848.202-1.703.22-2.56V9.6ZM20.46 34.5a14.2 14.2 0 0 1-6.86-1.8l-7.6 2 2-7.44a14.2 14.2 0 0 1-2-7.16 14.36 14.36 0 1 1 14.46 14.4Zm0-26.26a12 12 0 0 0-10.1 18.26l.28.46-1.2 4.38L14 30.1l.44.26a12 12 0 0 0 6 1.66 12 12 0 0 0 0-24l.02.22Zm7 17.04a3.641 3.641 0 0 1-2.42 1.7 4.6 4.6 0 0 1-2.24-.14 18.005 18.005 0 0 1-2-.76 16 16 0 0 1-6.12-5.4 7 7 0 0 1-1.46-3.7 4 4 0 0 1 1.26-3 1.3 1.3 0 0 1 .96-.44H16c.22 0 .52 0 .8.62s1.02 2.48 1.12 2.66a.68.68 0 0 1 0 .62 2.2 2.2 0 0 1-.36.6c-.18.22-.38.48-.54.64-.16.16-.36.36-.16.72a11.202 11.202 0 0 0 2 2.48 10 10 0 0 0 2.88 1.78c.36.18.58.16.78 0 .2-.16.9-1.04 1.14-1.4.24-.36.48-.3.8-.18.32.12 2.1.98 2.46 1.16.36.18.58.26.68.42a3.12 3.12 0 0 1-.14 1.56v.06Z"/></svg>
